X: 58
T:Crock of Gold, The
M:C|
L:1/8
Q:200
C:Vincent Broderick
S:THSP
R:reel
Z:
K:G
"G"B2Bd BAGE|GFGA GEDB,|DEGA BAGA|"C"BddB "D"BA~A2|
"G"B2Bd BAGE|~G3A GED2|g2fg egdB|"D"DEGA "G"BGG2:|
|:"Am"ea~a2 bage|a2ba gede|"G"gedB GA(3Bcd|gedB BA~A2|
"Am"ea~a2 bage|a2ba gede|"G"g2fg egdB|DEGA BGG2:||
